X: 10291
M: C|
L: 1/8
K: A
((3uEFG) |\
(AB)cd (ef)ec | (ea)ec (ef)ec | (3dbd (3Bcd (3cec (3ABc | (3BFB (3dcB (3GBG (3EFG |
|: (uef/g/) |\
ae (a/g/f/g/) (aA)gA | (aA)(gA) (fA)(eA) | (3dbd (3Bcd (3cec (3ABc | (3BFB (3dcB (3GBG (3EFG |
|: ue2 |\
(aA)(c'A) (e'A)(c'A) | (e'A)(c'A) (e'A)(c'A) | (d'A)(d'A) (c'A)(c'A) | b(c'b)a (ga)bg |
(aA)(c'A) (e'A)(c'A) | (e'A)(c'A) (e'A)(c'A) | (d'A)(d'A) (c'A)(c'A) | b(ef)g a2 "_D.C.":|


